src/assets/images/details/15.svg

<svg width="32" height="32" viewBox="0 0 32 32" fill="none" xmlns="http://www.w3.org/2000/svg">
<g filter="url(#filter0_f_6806_5260)">
<circle cx="13.8093" cy="21.3438" r="5.125" fill="url(#paint0_radial_6806_5260)"/>
</g>
<g filter="url(#filter1_i_6806_5260)">
<path d="M16.2069 16.4266C15.679 15.9384 14.84 15.9604 14.333 16.4758L11.166 19.6951L11.3462 18.6438C11.4712 17.9143 10.9635 17.2287 10.2123 17.1125C9.45691 16.9956 8.7438 17.4987 8.62387 18.2329L8.13817 21.2067L7.41254 23.6006C7.39919 23.6446 7.38802 23.6889 7.37899 23.7335C7.10258 24.4251 6.98774 25.1915 7.07569 25.9817C7.36333 28.5661 9.71149 30.4259 12.3204 30.1355C13.4682 30.0077 14.4752 29.4852 15.2186 28.7199L20.054 24.391C20.6211 23.8833 20.6508 23.0258 20.1198 22.4897C19.8886 22.2562 19.59 22.1231 19.2814 22.0914L19.7353 21.63C20.2659 21.0906 20.2481 20.2393 19.6957 19.7284C19.461 19.5113 19.1675 19.3906 18.8669 19.365L19.0063 19.2232C19.5369 18.6839 19.5191 17.8325 18.9667 17.3216C18.4143 16.8107 17.5363 16.8338 17.0057 17.3731L16.4885 17.8989C16.7239 17.412 16.6278 16.8159 16.2069 16.4266Z" fill="url(#paint1_radial_6806_5260)"/>
<path d="M16.2069 16.4266C15.679 15.9384 14.84 15.9604 14.333 16.4758L11.166 19.6951L11.3462 18.6438C11.4712 17.9143 10.9635 17.2287 10.2123 17.1125C9.45691 16.9956 8.7438 17.4987 8.62387 18.2329L8.13817 21.2067L7.41254 23.6006C7.39919 23.6446 7.38802 23.6889 7.37899 23.7335C7.10258 24.4251 6.98774 25.1915 7.07569 25.9817C7.36333 28.5661 9.71149 30.4259 12.3204 30.1355C13.4682 30.0077 14.4752 29.4852 15.2186 28.7199L20.054 24.391C20.6211 23.8833 20.6508 23.0258 20.1198 22.4897C19.8886 22.2562 19.59 22.1231 19.2814 22.0914L19.7353 21.63C20.2659 21.0906 20.2481 20.2393 19.6957 19.7284C19.461 19.5113 19.1675 19.3906 18.8669 19.365L19.0063 19.2232C19.5369 18.6839 19.5191 17.8325 18.9667 17.3216C18.4143 16.8107 17.5363 16.8338 17.0057 17.3731L16.4885 17.8989C16.7239 17.412 16.6278 16.8159 16.2069 16.4266Z" fill="url(#paint2_linear_6806_5260)"/>
<path d="M16.2069 16.4266C15.679 15.9384 14.84 15.9604 14.333 16.4758L11.166 19.6951L11.3462 18.6438C11.4712 17.9143 10.9635 17.2287 10.2123 17.1125C9.45691 16.9956 8.7438 17.4987 8.62387 18.2329L8.13817 21.2067L7.41254 23.6006C7.39919 23.6446 7.38802 23.6889 7.37899 23.7335C7.10258 24.4251 6.98774 25.1915 7.07569 25.9817C7.36333 28.5661 9.71149 30.4259 12.3204 30.1355C13.4682 30.0077 14.4752 29.4852 15.2186 28.7199L20.054 24.391C20.6211 23.8833 20.6508 23.0258 20.1198 22.4897C19.8886 22.2562 19.59 22.1231 19.2814 22.0914L19.7353 21.63C20.2659 21.0906 20.2481 20.2393 19.6957 19.7284C19.461 19.5113 19.1675 19.3906 18.8669 19.365L19.0063 19.2232C19.5369 18.6839 19.5191 17.8325 18.9667 17.3216C18.4143 16.8107 17.5363 16.8338 17.0057 17.3731L16.4885 17.8989C16.7239 17.412 16.6278 16.8159 16.2069 16.4266Z" fill="url(#paint3_radial_6806_5260)"/>
</g>
<path d="M14.3058 16.4837C14.8146 15.9655 15.6598 15.9452 16.1929 16.4382C16.7184 16.9242 16.7455 17.7291 16.2539 18.2487L12.0599 22.6821C11.5875 23.1815 10.7929 23.2298 10.2612 22.7914L9.8432 22.4468C9.54138 22.1979 9.49861 21.7612 9.74665 21.4609L11.1138 19.7343L14.3058 16.4837Z" fill="url(#paint4_linear_6806_5260)"/>
<path d="M13.3664 21.2994C13.1146 21.8105 13.2137 22.4393 13.6568 22.8491C14.2092 23.36 15.0872 23.3369 15.6177 22.7976L18.9827 19.2258C19.5133 18.6865 19.4956 17.8351 18.9432 17.3242C18.3907 16.8133 17.5128 16.8364 16.9822 17.3757L16.4969 17.8906C16.4031 17.9844 16.2441 18.1729 16.1414 18.2773L13.3664 21.2994Z" fill="url(#paint5_linear_6806_5260)"/>
<path d="M14.7756 23.0882C14.8162 23.3782 15.1353 23.7876 15.3701 24.0046C15.9225 24.5155 16.8005 24.4925 17.331 23.9531L19.6018 21.6448C20.1324 21.1055 20.2524 20.2453 19.6999 19.7344C19.6019 19.6437 19.4515 19.5501 19.2877 19.47C18.8918 19.2764 18.4494 19.4369 18.1369 19.7475L14.7756 23.0882Z" fill="url(#paint6_linear_6806_5260)"/>
<path d="M16.5437 24.6875L17.9031 26.2968C17.9031 26.2968 19.1962 25.1507 19.2781 25.0781L20.0171 24.396C20.5906 23.8878 20.6193 23.0204 20.0805 22.4763C19.9477 22.3422 19.7929 22.2405 19.6269 22.1717C19.3599 22.061 19.0683 22.1842 18.8631 22.3877L16.5437 24.6875Z" fill="url(#paint7_linear_6806_5260)"/>
<path d="M8.93433 22.4375L11.1804 19.6562C11.5945 18.0938 11.157 17.7305 11.0515 17.5703L8.93433 22.4375Z" fill="url(#paint8_linear_6806_5260)"/>
<g filter="url(#filter2_f_6806_5260)">
<path d="M20.1996 23.9445C19.884 24.0922 19.4768 23.8883 19.29 23.4892C19.1033 23.09 19.2077 22.6468 19.5233 22.4991C19.8389 22.3514 20.2461 22.5553 20.4329 22.9544C20.6197 23.3535 20.5152 23.7968 20.1996 23.9445Z" fill="url(#paint9_radial_6806_5260)"/>
</g>
<g filter="url(#filter3_f_6806_5260)">
<path d="M19.7529 21.1819C19.4373 21.3296 19.03 21.1257 18.8432 20.7266C18.6565 20.3275 18.7609 19.8842 19.0765 19.7365C19.3921 19.5888 19.7994 19.7927 19.9861 20.1918C20.1729 20.591 20.0684 21.0342 19.7529 21.1819Z" fill="url(#paint10_radial_6806_5260)"/>
</g>
<g filter="url(#filter4_f_6806_5260)">
<path d="M18.8432 18.7483C18.5276 18.896 18.1203 18.6921 17.9336 18.293C17.7468 17.8939 17.8512 17.4506 18.1668 17.3029C18.4824 17.1552 18.8897 17.3591 19.0765 17.7582C19.2632 18.1574 19.1588 18.6006 18.8432 18.7483Z" fill="url(#paint11_radial_6806_5260)"/>
</g>
<g filter="url(#filter5_f_6806_5260)">
<path d="M16.3119 17.7582C15.9963 17.9059 15.5891 17.702 15.4023 17.3029C15.2156 16.9038 15.32 16.4605 15.6356 16.3128C15.9512 16.1651 16.3584 16.369 16.5452 16.7681C16.732 17.1673 16.6275 17.6105 16.3119 17.7582Z" fill="url(#paint12_radial_6806_5260)"/>
</g>
<g filter="url(#filter6_f_6806_5260)">
<path d="M12.4375 20.9766C13.4271 21.6016 15.5375 23.4078 16.0625 25.6328" stroke="url(#paint13_linear_6806_5260)" stroke-width="1.5" stroke-linecap="round"/>
</g>
<path d="M11.204 18.7969C10.9095 19.3401 10.1861 19.5319 9.5618 19.2165C8.93753 18.9011 8.67023 18.2051 8.96476 17.6619C9.25928 17.1187 10.0041 16.9339 10.6284 17.2493C11.2526 17.5647 11.4986 18.2537 11.204 18.7969Z" fill="url(#paint14_radial_6806_5260)"/>
<defs>
<filter id="filter0_f_6806_5260" x="7.68433" y="15.2188" width="12.25" height="12.25" filterUnits="userSpaceOnUse" color-interpolation-filters="sRGB">
<feFlood flood-opacity="0" result="BackgroundImageFix"/>
<feBlend mode="normal" in="SourceGraphic" in2="BackgroundImageFix" result="shape"/>
<feGaussianBlur stdDeviation="0.5" result="effect1_foregroundBlur_6806_5260"/>
</filter>
<filter id="filter1_i_6806_5260" x="7.04663" y="14.0744" width="15.4529" height="16.0909" filterUnits="userSpaceOnUse" color-interpolation-filters="sRGB">
<feFlood flood-opacity="0" result="BackgroundImageFix"/>
<feBlend mode="normal" in="SourceGraphic" in2="BackgroundImageFix" result="shape"/>
<feColorMatrix in="SourceAlpha" type="matrix" values="0 0 0 0 0 0 0 0 0 0 0 0 0 0 0 0 0 0 127 0" result="hardAlpha"/>
<feOffset dx="2" dy="-2"/>
<feGaussianBlur stdDeviation="2"/>
<feComposite in2="hardAlpha" operator="arithmetic" k2="-1" k3="1"/>
<feColorMatrix type="matrix" values="0 0 0 0 0 0 0 0 0 0 0 0 0 0 0 0 0 0 0.08 0"/>
<feBlend mode="normal" in2="shape" result="effect1_innerShadow_6806_5260"/>
</filter>
<filter id="filter2_f_6806_5260" x="18.6973" y="21.951" width="2.32837" height="2.54156" filterUnits="userSpaceOnUse" color-interpolation-filters="sRGB">
<feFlood flood-opacity="0" result="BackgroundImageFix"/>
<feBlend mode="normal" in="SourceGraphic" in2="BackgroundImageFix" result="shape"/>
<feGaussianBlur stdDeviation="0.25" result="effect1_foregroundBlur_6806_5260"/>
</filter>
<filter id="filter3_f_6806_5260" x="18.2505" y="19.1884" width="2.32837" height="2.54156" filterUnits="userSpaceOnUse" color-interpolation-filters="sRGB">
<feFlood flood-opacity="0" result="BackgroundImageFix"/>
<feBlend mode="normal" in="SourceGraphic" in2="BackgroundImageFix" result="shape"/>
<feGaussianBlur stdDeviation="0.25" result="effect1_foregroundBlur_6806_5260"/>
</filter>
<filter id="filter4_f_6806_5260" x="17.3408" y="16.7548" width="2.32837" height="2.54156" filterUnits="userSpaceOnUse" color-interpolation-filters="sRGB">
<feFlood flood-opacity="0" result="BackgroundImageFix"/>
<feBlend mode="normal" in="SourceGraphic" in2="BackgroundImageFix" result="shape"/>
<feGaussianBlur stdDeviation="0.25" result="effect1_foregroundBlur_6806_5260"/>
</filter>
<filter id="filter5_f_6806_5260" x="14.8096" y="15.7647" width="2.32837" height="2.54156" filterUnits="userSpaceOnUse" color-interpolation-filters="sRGB">
<feFlood flood-opacity="0" result="BackgroundImageFix"/>
<feBlend mode="normal" in="SourceGraphic" in2="BackgroundImageFix" result="shape"/>
<feGaussianBlur stdDeviation="0.25" result="effect1_foregroundBlur_6806_5260"/>
</filter>
<filter id="filter6_f_6806_5260" x="10.1875" y="18.7264" width="8.12524" height="9.15656" filterUnits="userSpaceOnUse" color-interpolation-filters="sRGB">
<feFlood flood-opacity="0" result="BackgroundImageFix"/>
<feBlend mode="normal" in="SourceGraphic" in2="BackgroundImageFix" result="shape"/>
<feGaussianBlur stdDeviation="0.75" result="effect1_foregroundBlur_6806_5260"/>
</filter>
<radialGradient id="paint0_radial_6806_5260" cx="0" cy="0" r="1" gradientUnits="userSpaceOnUse" gradientTransform="translate(10.2156 19.9688) rotate(-54.7978) scale(5.58362 6.00984)">
<stop offset="0.307292" stop-color="#C16A0E" stop-opacity="0.53"/>
<stop offset="1" stop-color="#FA9428" stop-opacity="0"/>
</radialGradient>
<radialGradient id="paint1_radial_6806_5260" cx="0" cy="0" r="1" gradientUnits="userSpaceOnUse" gradientTransform="translate(21.723 14.6524) rotate(132.147) scale(32.3525 32.1482)">
<stop offset="0.239583" stop-color="#FFD43C"/>
<stop offset="0.613936" stop-color="#FFB02E"/>
<stop offset="1" stop-color="#F70A8D"/>
</radialGradient>
<linearGradient id="paint2_linear_6806_5260" x1="3.68556" y1="17.9788" x2="8.8277" y2="17.419" gradientUnits="userSpaceOnUse">
<stop offset="0.328125" stop-color="#EE891E"/>
<stop offset="0.864583" stop-color="#FA9428" stop-opacity="0"/>
</linearGradient>
<radialGradient id="paint3_radial_6806_5260" cx="0" cy="0" r="1" gradientUnits="userSpaceOnUse" gradientTransform="translate(20.2794 15.583) rotate(110.989) scale(20.6714 28.2125)">
<stop offset="0.731531" stop-color="#FD61C2" stop-opacity="0"/>
<stop offset="1" stop-color="#FF63C4"/>
</radialGradient>
<linearGradient id="paint4_linear_6806_5260" x1="10.9374" y1="15.3828" x2="13.7499" y2="18.289" gradientUnits="userSpaceOnUse">
<stop offset="0.385833" stop-color="#83480A"/>
<stop offset="0.545035" stop-color="#CD7313"/>
<stop offset="1" stop-color="#FA9428" stop-opacity="0"/>
</linearGradient>
<linearGradient id="paint5_linear_6806_5260" x1="14.1876" y1="18.6015" x2="15.2539" y2="19.7181" gradientUnits="userSpaceOnUse">
<stop offset="0.385833" stop-color="#83480A"/>
<stop offset="0.545035" stop-color="#CD7313"/>
<stop offset="1" stop-color="#FA9428" stop-opacity="0"/>
</linearGradient>
<linearGradient id="paint6_linear_6806_5260" x1="15.75" y1="20.0391" x2="16.9909" y2="21.3774" gradientUnits="userSpaceOnUse">
<stop offset="0.385833" stop-color="#83480A"/>
<stop offset="0.545035" stop-color="#CD7313"/>
<stop offset="1" stop-color="#FA9428" stop-opacity="0"/>
</linearGradient>
<linearGradient id="paint7_linear_6806_5260" x1="17.6563" y1="22.0674" x2="18.6692" y2="23.1558" gradientUnits="userSpaceOnUse">
<stop offset="0.385833" stop-color="#83480A"/>
<stop offset="0.545035" stop-color="#CD7313"/>
<stop offset="1" stop-color="#FA9428" stop-opacity="0"/>
</linearGradient>
<linearGradient id="paint8_linear_6806_5260" x1="10.1574" y1="21.6562" x2="9.55528" y2="21.3379" gradientUnits="userSpaceOnUse">
<stop offset="0.307292" stop-color="#E27F17" stop-opacity="0.53"/>
<stop offset="1" stop-color="#FA9428" stop-opacity="0"/>
</linearGradient>
<radialGradient id="paint9_radial_6806_5260" cx="0" cy="0" r="1" gradientUnits="userSpaceOnUse" gradientTransform="translate(19.6741 23.3715) rotate(-173.32) scale(0.811312 0.948018)">
<stop offset="0.328125" stop-color="#FAF194" stop-opacity="0.4"/>
<stop offset="0.723958" stop-color="#FFF478" stop-opacity="0"/>
</radialGradient>
<radialGradient id="paint10_radial_6806_5260" cx="0" cy="0" r="1" gradientUnits="userSpaceOnUse" gradientTransform="translate(19.2274 20.609) rotate(-173.32) scale(0.811312 0.948018)">
<stop offset="0.328125" stop-color="#FAF194" stop-opacity="0.4"/>
<stop offset="0.723958" stop-color="#FFF478" stop-opacity="0"/>
</radialGradient>
<radialGradient id="paint11_radial_6806_5260" cx="0" cy="0" r="1" gradientUnits="userSpaceOnUse" gradientTransform="translate(18.3177 18.1754) rotate(-173.32) scale(0.811312 0.948018)">
<stop offset="0.328125" stop-color="#FAF194" stop-opacity="0.4"/>
<stop offset="0.723958" stop-color="#FFF478" stop-opacity="0"/>
</radialGradient>
<radialGradient id="paint12_radial_6806_5260" cx="0" cy="0" r="1" gradientUnits="userSpaceOnUse" gradientTransform="translate(15.7864 17.1852) rotate(-173.32) scale(0.811312 0.948018)">
<stop offset="0.328125" stop-color="#FAF194" stop-opacity="0.4"/>
<stop offset="0.723958" stop-color="#FFF478" stop-opacity="0"/>
</radialGradient>
<linearGradient id="paint13_linear_6806_5260" x1="10.9209" y1="20.9766" x2="17.2542" y2="27.7098" gradientUnits="userSpaceOnUse">
<stop offset="0.328125" stop-color="#FFF478" stop-opacity="0.5"/>
<stop offset="1" stop-color="#FFF478" stop-opacity="0"/>
</linearGradient>
<radialGradient id="paint14_radial_6806_5260" cx="0" cy="0" r="1" gradientUnits="userSpaceOnUse" gradientTransform="translate(10.6616 17.9355) rotate(142.226) scale(1.91039 2.0065)">
<stop offset="0.328125" stop-color="#FFF478" stop-opacity="0.3"/>
<stop offset="0.723958" stop-color="#FFF478" stop-opacity="0"/>
</radialGradient>
</defs>
</svg>

<svg width="32" height="32" fill="none" xmlns="http://www.w3.org/2000/svg"><g filter="url(#a)"><circle cx="13.809" cy="21.344" r="5.125" fill="url(#b)"/></g><g filter="url(#c)"><path d="M16.207 16.427a1.355 1.355 0 0 0-1.874.049l-3.167 3.22.18-1.052c.125-.73-.383-1.415-1.134-1.531-.755-.117-1.468.386-1.588 1.12l-.486 2.974-.725 2.394a1.445 1.445 0 0 0-.034.133 4.652 4.652 0 0 0-.303 2.248c.287 2.584 2.635 4.444 5.244 4.154a4.76 4.76 0 0 0 2.899-1.416l4.835-4.329a1.304 1.304 0 0 0 .066-1.901 1.373 1.373 0 0 0-.839-.399l.454-.461c.53-.54.513-1.39-.04-1.902a1.39 1.39 0 0 0-.828-.363l.14-.142c.53-.54.512-1.39-.04-1.901a1.418 1.418 0 0 0-1.961.051l-.518.526a1.254 1.254 0 0 0-.281-1.472z" fill="url(#d)"/><path d="M16.207 16.427a1.355 1.355 0 0 0-1.874.049l-3.167 3.22.18-1.052c.125-.73-.383-1.415-1.134-1.531-.755-.117-1.468.386-1.588 1.12l-.486 2.974-.725 2.394a1.445 1.445 0 0 0-.034.133 4.652 4.652 0 0 0-.303 2.248c.287 2.584 2.635 4.444 5.244 4.154a4.76 4.76 0 0 0 2.899-1.416l4.835-4.329a1.304 1.304 0 0 0 .066-1.901 1.373 1.373 0 0 0-.839-.399l.454-.461c.53-.54.513-1.39-.04-1.902a1.39 1.39 0 0 0-.828-.363l.14-.142c.53-.54.512-1.39-.04-1.901a1.418 1.418 0 0 0-1.961.051l-.518.526a1.254 1.254 0 0 0-.281-1.472z" fill="url(#e)"/><path d="M16.207 16.427a1.355 1.355 0 0 0-1.874.049l-3.167 3.22.18-1.052c.125-.73-.383-1.415-1.134-1.531-.755-.117-1.468.386-1.588 1.12l-.486 2.974-.725 2.394a1.445 1.445 0 0 0-.034.133 4.652 4.652 0 0 0-.303 2.248c.287 2.584 2.635 4.444 5.244 4.154a4.76 4.76 0 0 0 2.899-1.416l4.835-4.329a1.304 1.304 0 0 0 .066-1.901 1.373 1.373 0 0 0-.839-.399l.454-.461c.53-.54.513-1.39-.04-1.902a1.39 1.39 0 0 0-.828-.363l.14-.142c.53-.54.512-1.39-.04-1.901a1.418 1.418 0 0 0-1.961.051l-.518.526a1.254 1.254 0 0 0-.281-1.472z" fill="url(#f)"/></g><path d="M14.306 16.484a1.364 1.364 0 0 1 1.887-.046c.525.486.552 1.291.06 1.81l-4.193 4.434c-.473.5-1.267.548-1.799.11l-.418-.345a.696.696 0 0 1-.096-.986l1.367-1.727 3.192-3.25z" fill="url(#g)"/><path d="M13.366 21.3a1.312 1.312 0 0 0 .29 1.55c.553.51 1.431.487 1.962-.052l3.365-3.572c.53-.54.513-1.39-.04-1.902a1.418 1.418 0 0 0-1.96.052l-.486.515c-.094.093-.253.282-.356.386L13.366 21.3z" fill="url(#h)"/><path d="M14.776 23.088c.04.29.36.7.594.917.553.51 1.43.488 1.961-.052l2.27-2.308c.531-.54.651-1.4.099-1.91a1.796 1.796 0 0 0-.412-.265c-.396-.194-.839-.033-1.151.277l-3.361 3.341z" fill="url(#i)"/><path d="m16.544 24.688 1.36 1.609 1.374-1.219.74-.682a1.314 1.314 0 0 0 .063-1.92 1.382 1.382 0 0 0-.454-.304c-.267-.111-.559.012-.764.216l-2.32 2.3z" fill="url(#j)"/><path d="m8.934 22.438 2.246-2.782c.415-1.562-.023-1.925-.128-2.086l-2.118 4.867z" fill="url(#k)"/><g filter="url(#l)"><path d="M20.2 23.945c-.316.147-.723-.057-.91-.456-.187-.399-.082-.842.233-.99.316-.148.723.056.91.455.187.4.082.843-.233.99z" fill="url(#m)"/></g><g filter="url(#n)"><path d="M19.753 21.182c-.316.148-.723-.056-.91-.455-.186-.4-.082-.843.233-.99.316-.148.723.056.91.455.187.399.082.842-.233.99z" fill="url(#o)"/></g><g filter="url(#p)"><path d="M18.843 18.748c-.315.148-.723-.056-.91-.455-.186-.4-.082-.842.234-.99.315-.148.723.056.91.455.186.4.082.843-.234.99z" fill="url(#q)"/></g><g filter="url(#r)"><path d="M16.312 17.758c-.316.148-.723-.056-.91-.455-.186-.4-.082-.843.234-.99.315-.148.722.056.91.455.186.4.082.842-.234.99z" fill="url(#s)"/></g><g filter="url(#t)"><path d="M12.438 20.977c.99.625 3.1 2.43 3.624 4.656" stroke="url(#u)" stroke-width="1.5" stroke-linecap="round"/></g><path d="M11.204 18.797c-.295.543-1.018.735-1.642.42-.624-.316-.892-1.012-.597-1.555.294-.543 1.04-.728 1.663-.413.625.316.87 1.005.576 1.548z" fill="url(#v)"/><defs><radialGradient id="b" cx="0" cy="0" r="1" gradientUnits="userSpaceOnUse" gradientTransform="matrix(3.21875 -4.5625 4.91078 3.46445 10.216 19.969)"><stop offset=".307" stop-color="#C16A0E" stop-opacity=".53"/><stop offset="1" stop-color="#FA9428" stop-opacity="0"/></radialGradient><radialGradient id="d" cx="0" cy="0" r="1" gradientUnits="userSpaceOnUse" gradientTransform="rotate(132.147 7.61 12.145) scale(32.3525 32.1482)"><stop offset=".24" stop-color="#FFD43C"/><stop offset=".614" stop-color="#FFB02E"/><stop offset="1" stop-color="#F70A8D"/></radialGradient><radialGradient id="f" cx="0" cy="0" r="1" gradientUnits="userSpaceOnUse" gradientTransform="rotate(110.989 4.784 14.762) scale(20.6714 28.2125)"><stop offset=".732" stop-color="#FD61C2" stop-opacity="0"/><stop offset="1" stop-color="#FF63C4"/></radialGradient><radialGradient id="m" cx="0" cy="0" r="1" gradientUnits="userSpaceOnUse" gradientTransform="rotate(-173.321 10.519 11.112) scale(.81131 .94802)"><stop offset=".328" stop-color="#FAF194" stop-opacity=".4"/><stop offset=".724" stop-color="#FFF478" stop-opacity="0"/></radialGradient><radialGradient id="o" cx="0" cy="0" r="1" gradientUnits="userSpaceOnUse" gradientTransform="rotate(-173.321 10.215 9.743) scale(.81131 .94802)"><stop offset=".328" stop-color="#FAF194" stop-opacity=".4"/><stop offset=".724" stop-color="#FFF478" stop-opacity="0"/></radialGradient><radialGradient id="q" cx="0" cy="0" r="1" gradientUnits="userSpaceOnUse" gradientTransform="rotate(-173.321 9.69 8.553) scale(.81131 .94802)"><stop offset=".328" stop-color="#FAF194" stop-opacity=".4"/><stop offset=".724" stop-color="#FFF478" stop-opacity="0"/></radialGradient><radialGradient id="s" cx="0" cy="0" r="1" gradientUnits="userSpaceOnUse" gradientTransform="rotate(-173.321 8.395 8.132) scale(.81131 .94802)"><stop offset=".328" stop-color="#FAF194" stop-opacity=".4"/><stop offset=".724" stop-color="#FFF478" stop-opacity="0"/></radialGradient><radialGradient id="v" cx="0" cy="0" r="1" gradientUnits="userSpaceOnUse" gradientTransform="rotate(142.226 2.263 10.792) scale(1.91039 2.0065)"><stop offset=".328" stop-color="#FFF478" stop-opacity=".3"/><stop offset=".724" stop-color="#FFF478" stop-opacity="0"/></radialGradient><linearGradient id="e" x1="3.686" y1="17.979" x2="8.828" y2="17.419" gradientUnits="userSpaceOnUse"><stop offset=".328" stop-color="#EE891E"/><stop offset=".865" stop-color="#FA9428" stop-opacity="0"/></linearGradient><linearGradient id="g" x1="10.937" y1="15.383" x2="13.75" y2="18.289" gradientUnits="userSpaceOnUse"><stop offset=".386" stop-color="#83480A"/><stop offset=".545" stop-color="#CD7313"/><stop offset="1" stop-color="#FA9428" stop-opacity="0"/></linearGradient><linearGradient id="h" x1="14.188" y1="18.602" x2="15.254" y2="19.718" gradientUnits="userSpaceOnUse"><stop offset=".386" stop-color="#83480A"/><stop offset=".545" stop-color="#CD7313"/><stop offset="1" stop-color="#FA9428" stop-opacity="0"/></linearGradient><linearGradient id="i" x1="15.75" y1="20.039" x2="16.991" y2="21.377" gradientUnits="userSpaceOnUse"><stop offset=".386" stop-color="#83480A"/><stop offset=".545" stop-color="#CD7313"/><stop offset="1" stop-color="#FA9428" stop-opacity="0"/></linearGradient><linearGradient id="j" x1="17.656" y1="22.067" x2="18.669" y2="23.156" gradientUnits="userSpaceOnUse"><stop offset=".386" stop-color="#83480A"/><stop offset=".545" stop-color="#CD7313"/><stop offset="1" stop-color="#FA9428" stop-opacity="0"/></linearGradient><linearGradient id="k" x1="10.157" y1="21.656" x2="9.555" y2="21.338" gradientUnits="userSpaceOnUse"><stop offset=".307" stop-color="#E27F17" stop-opacity=".53"/><stop offset="1" stop-color="#FA9428" stop-opacity="0"/></linearGradient><linearGradient id="u" x1="10.921" y1="20.977" x2="17.254" y2="27.71" gradientUnits="userSpaceOnUse"><stop offset=".328" stop-color="#FFF478" stop-opacity=".5"/><stop offset="1" stop-color="#FFF478" stop-opacity="0"/></linearGradient><filter id="a" x="7.684" y="15.219" width="12.25" height="12.25" filterUnits="userSpaceOnUse" color-interpolation-filters="sRGB"><feFlood flood-opacity="0" result="BackgroundImageFix"/><feBlend in="SourceGraphic" in2="BackgroundImageFix" result="shape"/><feGaussianBlur stdDeviation=".5" result="effect1_foregroundBlur_6806_5260"/></filter><filter id="c" x="7.047" y="14.074" width="15.453" height="16.091" filterUnits="userSpaceOnUse" color-interpolation-filters="sRGB"><feFlood flood-opacity="0" result="BackgroundImageFix"/><feBlend in="SourceGraphic" in2="BackgroundImageFix" result="shape"/><feColorMatrix in="SourceAlpha" values="0 0 0 0 0 0 0 0 0 0 0 0 0 0 0 0 0 0 127 0" result="hardAlpha"/><feOffset dx="2" dy="-2"/><feGaussianBlur stdDeviation="2"/><feComposite in2="hardAlpha" operator="arithmetic" k2="-1" k3="1"/><feColorMatrix values="0 0 0 0 0 0 0 0 0 0 0 0 0 0 0 0 0 0 0.08 0"/><feBlend in2="shape" result="effect1_innerShadow_6806_5260"/></filter><filter id="l" x="18.697" y="21.951" width="2.328" height="2.542" filterUnits="userSpaceOnUse" color-interpolation-filters="sRGB"><feFlood flood-opacity="0" result="BackgroundImageFix"/><feBlend in="SourceGraphic" in2="BackgroundImageFix" result="shape"/><feGaussianBlur stdDeviation=".25" result="effect1_foregroundBlur_6806_5260"/></filter><filter id="n" x="18.25" y="19.188" width="2.328" height="2.542" filterUnits="userSpaceOnUse" color-interpolation-filters="sRGB"><feFlood flood-opacity="0" result="BackgroundImageFix"/><feBlend in="SourceGraphic" in2="BackgroundImageFix" result="shape"/><feGaussianBlur stdDeviation=".25" result="effect1_foregroundBlur_6806_5260"/></filter><filter id="p" x="17.341" y="16.755" width="2.328" height="2.542" filterUnits="userSpaceOnUse" color-interpolation-filters="sRGB"><feFlood flood-opacity="0" result="BackgroundImageFix"/><feBlend in="SourceGraphic" in2="BackgroundImageFix" result="shape"/><feGaussianBlur stdDeviation=".25" result="effect1_foregroundBlur_6806_5260"/></filter><filter id="r" x="14.81" y="15.765" width="2.328" height="2.542" filterUnits="userSpaceOnUse" color-interpolation-filters="sRGB"><feFlood flood-opacity="0" result="BackgroundImageFix"/><feBlend in="SourceGraphic" in2="BackgroundImageFix" result="shape"/><feGaussianBlur stdDeviation=".25" result="effect1_foregroundBlur_6806_5260"/></filter><filter id="t" x="10.188" y="18.726" width="8.125" height="9.157" filterUnits="userSpaceOnUse" color-interpolation-filters="sRGB"><feFlood flood-opacity="0" result="BackgroundImageFix"/><feBlend in="SourceGraphic" in2="BackgroundImageFix" result="shape"/><feGaussianBlur stdDeviation=".75" result="effect1_foregroundBlur_6806_5260"/></filter></defs></svg>
